X:226
T:The Left-Handed Fiddler's 
R:
C:Bruce Osborne - Mar. (2006)
Z:abc by bosborne@kos.net
M:3/4
L:1/8
K:Bb
D3/2E/|F3 B AB|G3 E B,G|F3 G FD|B,4 AB|\
c3 d cA|F3 A cA|BA Bc dg|f4 D3/2E/|\
F3 B AB|G3 E B,G|F3 G FD|B,4 AB|\
c3 d cA|F3 F GA|BA Bd cA|B4||\
BA|G2 G^F GA|B2 Bc BG|F2 FG FD|B,4 AB|\
c2 cd cA|F3 A cA|BA Bc dg|f4 BA|\
G2 G^F GA|B2 Bc BG|F2 FG FD|B,4 AB|\
c2 cd cA|F3 F GA|BA Bd cA|B4||
